public/images/mentorship/nyc-women-in-stem.svg

<svg width="581" height="381" viewBox="0 0 581 381" fill="none" xmlns="http://www.w3.org/2000/svg">
<path d="M153.941 89.0039L150.457 108.209C149.48 113.783 148.424 118.58 147.261 122.617C146.097 126.646 144.158 132.026 141.45 138.748L102.244 232.649H81.0469L73.009 134.008L71.752 118.58L28.1721 231.873H6.9748L0 89.0039H19.7535L23.2373 198.462L69.4103 89.7799H88.0145L95.858 200.968L123.736 131.264C125.862 126.273 127.464 122.042 128.527 118.588C129.59 115.133 130.51 111.197 131.285 106.773L134.482 89.0039H153.941Z" fill="#E0E7EC"/>
<path d="M187.4 235.4C178.733 235.4 171.133 233.533 164.6 229.8C158.067 226.067 153 220.733 149.4 213.8C145.8 206.867 144 198.733 144 189.4C144 178.733 146.267 169 150.8 160.2C155.467 151.4 161.933 144.4 170.2 139.2C178.467 134 188 131.4 198.8 131.4C207.467 131.4 215 133.267 221.4 137C227.933 140.733 233 146.067 236.6 153C240.2 159.933 242 168.067 242 177.4C242 188.067 239.667 197.8 235 206.6C230.467 215.4 224.067 222.4 215.8 227.6C207.667 232.8 198.2 235.4 187.4 235.4ZM187.8 219.4C195.533 219.4 202.133 217.6 207.6 214C213.2 210.4 217.467 205.533 220.4 199.4C223.333 193.267 224.8 186.467 224.8 179C224.8 168.467 222.333 160.6 217.4 155.4C212.467 150.067 206.067 147.4 198.2 147.4C190.467 147.4 183.8 149.2 178.2 152.8C172.733 156.4 168.533 161.267 165.6 167.4C162.667 173.533 161.2 180.333 161.2 187.8C161.2 198.6 163.667 206.6 168.6 211.8C173.533 216.867 179.933 219.4 187.8 219.4ZM251.122 233L265.122 153.6C265.655 150 264.055 148.2 260.322 148.2H256.722L259.522 133.8H270.722C274.189 133.8 276.922 134.733 278.922 136.6C280.922 138.467 281.922 141.067 281.922 144.4V144.8H282.722C286.989 135.867 294.189 131.4 304.322 131.4C314.855 131.4 321.189 135.933 323.322 145H323.922C325.789 141 328.655 137.733 332.522 135.2C336.389 132.667 341.122 131.4 346.722 131.4C354.189 131.4 359.789 134.067 363.522 139.4C367.389 144.733 368.655 151.467 367.322 159.6L354.122 233H337.722L350.322 162.2C351.122 157.533 350.589 153.8 348.722 151C346.989 148.067 344.122 146.6 340.122 146.6C335.855 146.6 332.122 148.267 328.922 151.6C325.855 154.933 323.789 159.667 322.722 165.8L310.722 233H294.522L306.922 162.2C307.722 157.533 307.189 153.8 305.322 151C303.589 148.067 300.722 146.6 296.722 146.6C292.322 146.6 288.589 148.267 285.522 151.6C282.455 154.933 280.389 159.667 279.322 165.8L267.322 233H251.122ZM420.044 235.4C411.644 235.4 404.244 233.533 397.844 229.8C391.577 226.067 386.644 220.733 383.044 213.8C379.577 206.733 377.844 198.333 377.844 188.6C377.844 177.933 380.244 168.267 385.044 159.6C389.844 150.933 396.444 144.067 404.844 139C413.377 133.933 423.11 131.4 434.044 131.4C443.11 131.4 450.577 133.133 456.444 136.6C462.444 140.067 466.91 144.733 469.844 150.6C472.91 156.467 474.444 163 474.444 170.2C474.444 172.733 474.177 175.6 473.644 178.8C473.11 182 472.51 184.8 471.844 187.2H394.644V187.6C394.644 198.267 397.177 206.333 402.244 211.8C407.444 217.267 413.91 220 421.644 220C428.577 220 434.377 218.467 439.044 215.4C443.844 212.333 447.51 208.067 450.044 202.6H466.644C463.044 212.467 457.577 220.4 450.244 226.4C442.91 232.4 432.844 235.4 420.044 235.4ZM432.244 146.4C423.044 146.4 415.377 148.933 409.244 154C403.244 158.933 399.044 165.267 396.644 173H458.044C458.177 172.467 458.244 171.867 458.244 171.2C458.244 170.533 458.244 169.933 458.244 169.4C458.244 162.067 455.91 156.4 451.244 152.4C446.577 148.4 440.244 146.4 432.244 146.4ZM483.566 233L497.566 154C498.366 150.133 496.832 148.2 492.966 148.2H483.166L485.766 133.8H502.166C506.166 133.8 509.232 134.8 511.366 136.8C513.499 138.8 514.566 141.533 514.566 145V147.2H515.366C518.566 142.8 522.899 139.067 528.366 136C533.966 132.933 540.699 131.4 548.566 131.4C556.832 131.4 563.499 133.333 568.566 137.2C573.766 140.933 577.299 146.067 579.166 152.6C581.032 159 581.232 166.067 579.766 173.8L569.366 233H552.566L562.766 175.4C564.232 167.133 563.299 160.267 559.966 154.8C556.632 149.2 550.832 146.4 542.566 146.4C534.566 146.4 527.566 149.267 521.566 155C515.699 160.6 511.832 168.467 509.966 178.6L500.366 233H483.566Z" fill="#E0E7EC"/>
<path d="M34.9 2.00019C34.9 1.33349 35.2333 1.00019 35.9 1.00019H43.5C44.1666 1.00019 44.5 1.33349 44.5 2.00019V70.0002C44.5 70.6669 44.1666 71.0002 43.5 71.0002H35.5C34.9 71.0002 34.5 70.7669 34.2999 70.3002L10.2 21.8002C10.0667 21.6669 9.93325 21.6002 9.79995 21.6002C9.73325 21.6002 9.69995 21.7002 9.69995 21.9002L9.79995 70.0002C9.79995 70.6669 9.46665 71.0002 8.79995 71.0002H1.19995C0.533281 71.0002 0.199951 70.6669 0.199951 70.0002V2.00019C0.199951 1.33349 0.533281 1.00019 1.19995 1.00019H9.19995C9.79995 1.00019 10.2 1.2335 10.4 1.7002L34.4 50.2002C34.5333 50.3335 34.6333 50.4002 34.7 50.4002C34.8333 50.4002 34.9 50.3002 34.9 50.1002V2.00019ZM73.5914 70.9002C72.9247 70.9002 72.5914 70.5669 72.5914 69.9002V41.5002C72.5914 41.2335 72.5581 41.0669 72.4914 41.0002L55.0914 2.2002L54.9914 1.80019C54.9914 1.26689 55.2914 1.00019 55.8913 1.00019H63.9914C64.5247 1.00019 64.8914 1.26689 65.0914 1.80019L77.0914 30.2002C77.1581 30.3335 77.2581 30.4002 77.3914 30.4002C77.5247 30.4002 77.6246 30.3335 77.6914 30.2002L89.5914 1.80019C89.7914 1.26689 90.1581 1.00019 90.6914 1.00019H98.891C99.225 1.00019 99.458 1.13349 99.591 1.40019C99.791 1.60019 99.825 1.8669 99.691 2.2002L82.1914 41.0002C82.1246 41.0669 82.0914 41.2335 82.0914 41.5002V69.9002C82.0914 70.5669 81.7581 70.9002 81.0914 70.9002H73.5914ZM127.613 71.8002C123.413 71.8002 119.679 70.9669 116.413 69.3002C113.213 67.5669 110.713 65.1669 108.913 62.1002C107.179 58.9669 106.313 55.3669 106.313 51.3002V20.6002C106.313 14.4002 108.246 9.46689 112.113 5.80019C116.046 2.06689 121.213 0.200195 127.613 0.200195C134.013 0.200195 139.146 2.0335 143.013 5.7002C146.879 9.3669 148.813 14.2335 148.813 20.3002V21.1002C148.813 21.4335 148.713 21.7002 148.513 21.9002C148.313 22.1002 148.079 22.2002 147.813 22.2002L140.213 22.6002C139.546 22.6002 139.213 22.2669 139.213 21.6002V20.1002C139.213 16.6335 138.146 13.8335 136.013 11.7002C133.879 9.5669 131.079 8.50019 127.613 8.50019C124.146 8.50019 121.313 9.5669 119.113 11.7002C116.979 13.8335 115.913 16.6335 115.913 20.1002V51.9002C115.913 55.3669 116.979 58.1669 119.113 60.3002C121.313 62.4335 124.146 63.5002 127.613 63.5002C131.079 63.5002 133.879 62.4335 136.013 60.3002C138.146 58.1669 139.213 55.3669 139.213 51.9002V50.5002C139.213 49.8335 139.546 49.5002 140.213 49.5002L147.813 49.9002C148.479 49.9002 148.813 50.2335 148.813 50.9002V51.6002C148.813 55.6002 147.913 59.1335 146.113 62.2002C144.379 65.2669 141.913 67.6335 138.713 69.3002C135.513 70.9669 131.813 71.8002 127.613 71.8002Z" fill="#E0E7EC"/>
<path d="M128.546 248.356C126.501 248.356 124.739 247.652 123.259 246.244C121.848 244.837 121.144 243.148 121.144 241.178C121.144 239.137 121.848 237.448 123.259 236.111C124.739 234.703 126.501 234 128.546 234C130.662 234 132.424 234.703 133.834 236.111C135.244 237.448 135.949 239.137 135.949 241.178C135.949 243.148 135.244 244.837 133.834 246.244C132.424 247.652 130.662 248.356 128.546 248.356ZM125.613 309C122.581 309 120.325 308.086 118.845 306.256C117.364 304.356 116.906 301.857 117.47 298.761L123.181 266.883C123.463 265.124 122.758 264.244 121.066 264.244H107L108.375 256.644H123.921C127.375 256.644 129.738 257.489 131.007 259.178C132.276 260.797 132.628 263.4 132.065 266.989L126.354 298.656C126.071 300.486 126.777 301.4 128.469 301.4H144.649L143.275 309H125.613ZM142.619 309L150.022 267.305C150.445 265.265 149.635 264.244 147.59 264.244H142.407L143.783 256.644H152.455C154.57 256.644 156.192 257.172 157.319 258.227C158.447 259.283 159.012 260.726 159.012 262.556V263.716H159.435C161.127 261.394 163.418 259.424 166.308 257.805C169.269 256.187 172.83 255.378 176.99 255.378C181.362 255.378 184.886 256.398 187.566 258.438C190.315 260.409 192.184 263.119 193.17 266.567C194.158 269.944 194.264 273.674 193.488 277.756L187.989 309H179.105L184.498 278.6C185.274 274.237 184.781 270.613 183.018 267.727C181.255 264.772 178.189 263.294 173.817 263.294C169.587 263.294 165.885 264.808 162.712 267.833C159.611 270.789 157.566 274.941 156.579 280.289L151.502 309H142.619Z" fill="#E0E7EC"/>
<path d="M236.713 375C227.504 375 219.949 373.218 214.046 369.655C208.144 365.972 203.894 361.161 201.297 355.222C198.699 349.164 197.637 342.513 198.109 335.267H213.692C212.748 342.869 214.342 349.164 218.473 354.153C222.605 359.023 228.921 361.459 237.421 361.459C245.802 361.459 252.531 359.499 257.608 355.579C262.802 351.54 265.399 345.957 265.399 338.83C265.399 335.267 264.632 332.059 263.097 329.209C261.681 326.358 259.083 323.685 255.306 321.191C251.646 318.696 246.393 316.261 239.546 313.885C229.629 310.441 222.31 305.867 217.588 300.166C212.984 294.464 210.682 287.337 210.682 278.785C210.682 268.807 214.519 260.848 222.192 254.909C229.983 248.97 240.313 246 253.181 246C264.75 246 273.722 249.148 280.097 255.443C286.472 261.62 289.424 269.995 288.951 280.566H273.368C273.841 274.152 272.01 269.044 267.879 265.243C263.747 261.442 258.198 259.541 251.233 259.541C244.032 259.541 238.07 261.264 233.348 264.709C228.626 268.035 226.265 272.429 226.265 277.894C226.265 283.595 228.094 288.347 231.754 292.148C235.532 295.83 242.32 299.453 252.118 303.017C261.091 306.343 268.174 310.619 273.368 315.845C278.68 320.953 281.337 328.02 281.337 337.048C281.337 345.125 279.448 352.015 275.67 357.717C271.893 363.299 266.639 367.576 259.91 370.546C253.299 373.515 245.567 375 236.713 375Z" fill="#DCDF3D"/>
<path d="M307.823 375L327.494 264.463H294L296.481 251H378L375.519 264.463H342.38L322.709 375H307.823Z" fill="#DCDF3D"/>
<path d="M463 375L485.058 251H500.178L518.5 309.989L557.101 251H574L551.942 375H537.356L554.433 279.874L521.702 329.829H509.784L494.486 279.874L477.587 375H463Z" fill="#DCDF3D"/>
<path d="M367 375L389.545 251H469L466.455 264.463H402.273L394.818 305.737H453.545L451.182 319.2H392.455L384.636 361.537H449L446.455 375H367Z" fill="#DCDF3D"/>
</svg>

<svg fill="none" height="381" viewBox="0 0 581 381" width="581" xmlns="http://www.w3.org/2000/svg"><g fill="#e0e7ec"><path d="m153.941 89.0039-3.484 19.2051c-.977 5.574-2.033 10.371-3.196 14.408-1.164 4.029-3.103 9.409-5.811 16.131l-39.206 93.901h-21.1971l-8.0379-98.641-1.257-15.428-43.5799 113.293h-21.1973l-6.9748-142.8691h19.7535l3.4838 109.4581 46.173-108.6821h18.6042l7.8435 111.1881 27.878-69.704c2.126-4.991 3.728-9.222 4.791-12.676 1.063-3.455 1.983-7.391 2.758-11.815l3.197-17.7691z"/><path d="m187.4 235.4c-8.667 0-16.267-1.867-22.8-5.6s-11.6-9.067-15.2-16-5.4-15.067-5.4-24.4c0-10.667 2.267-20.4 6.8-29.2 4.667-8.8 11.133-15.8 19.4-21s17.8-7.8 28.6-7.8c8.667 0 16.2 1.867 22.6 5.6 6.533 3.733 11.6 9.067 15.2 16s5.4 15.067 5.4 24.4c0 10.667-2.333 20.4-7 29.2-4.533 8.8-10.933 15.8-19.2 21-8.133 5.2-17.6 7.8-28.4 7.8zm.4-16c7.733 0 14.333-1.8 19.8-5.4 5.6-3.6 9.867-8.467 12.8-14.6s4.4-12.933 4.4-20.4c0-10.533-2.467-18.4-7.4-23.6-4.933-5.333-11.333-8-19.2-8-7.733 0-14.4 1.8-20 5.4-5.467 3.6-9.667 8.467-12.6 14.6s-4.4 12.933-4.4 20.4c0 10.8 2.467 18.8 7.4 24 4.933 5.067 11.333 7.6 19.2 7.6zm63.322 13.6 14-79.4c.533-3.6-1.067-5.4-4.8-5.4h-3.6l2.8-14.4h11.2c3.467 0 6.2.933 8.2 2.8s3 4.467 3 7.8v.4h.8c4.267-8.933 11.467-13.4 21.6-13.4 10.533 0 16.867 4.533 19 13.6h.6c1.867-4 4.733-7.267 8.6-9.8s8.6-3.8 14.2-3.8c7.467 0 13.067 2.667 16.8 8 3.867 5.333 5.133 12.067 3.8 20.2l-13.2 73.4h-16.4l12.6-70.8c.8-4.667.267-8.4-1.6-11.2-1.733-2.933-4.6-4.4-8.6-4.4-4.267 0-8 1.667-11.2 5-3.067 3.333-5.133 8.067-6.2 14.2l-12 67.2h-16.2l12.4-70.8c.8-4.667.267-8.4-1.6-11.2-1.733-2.933-4.6-4.4-8.6-4.4-4.4 0-8.133 1.667-11.2 5s-5.133 8.067-6.2 14.2l-12 67.2zm168.922 2.4c-8.4 0-15.8-1.867-22.2-5.6-6.267-3.733-11.2-9.067-14.8-16-3.467-7.067-5.2-15.467-5.2-25.2 0-10.667 2.4-20.333 7.2-29s11.4-15.533 19.8-20.6c8.533-5.067 18.266-7.6 29.2-7.6 9.066 0 16.533 1.733 22.4 5.2 6 3.467 10.466 8.133 13.4 14 3.066 5.867 4.6 12.4 4.6 19.6 0 2.533-.267 5.4-.8 8.6-.534 3.2-1.134 6-1.8 8.4h-77.2v.4c0 10.667 2.533 18.733 7.6 24.2 5.2 5.467 11.666 8.2 19.4 8.2 6.933 0 12.733-1.533 17.4-4.6 4.8-3.067 8.466-7.333 11-12.8h16.6c-3.6 9.867-9.067 17.8-16.4 23.8-7.334 6-17.4 9-30.2 9zm12.2-89c-9.2 0-16.867 2.533-23 7.6-6 4.933-10.2 11.267-12.6 19h61.4c.133-.533.2-1.133.2-1.8s0-1.267 0-1.8c0-7.333-2.334-13-7-17-4.667-4-11-6-19-6zm51.322 86.6 14-79c.8-3.867-.734-5.8-4.6-5.8h-9.8l2.6-14.4h16.4c4 0 7.066 1 9.2 3 2.133 2 3.2 4.733 3.2 8.2v2.2h.8c3.2-4.4 7.533-8.133 13-11.2 5.6-3.067 12.333-4.6 20.2-4.6 8.266 0 14.933 1.933 20 5.8 5.2 3.733 8.733 8.867 10.6 15.4 1.866 6.4 2.066 13.467.6 21.2l-10.4 59.2h-16.8l10.2-57.6c1.466-8.267.533-15.133-2.8-20.6-3.334-5.6-9.134-8.4-17.4-8.4-8 0-15 2.867-21 8.6-5.867 5.6-9.734 13.467-11.6 23.6l-9.6 54.4z"/><path d="m34.9 2.00019c0-.6667.3333-1 1-1h7.6c.6666 0 1 .3333 1 1v68.00001c0 .6667-.3334 1-1 1h-8c-.6 0-1-.2333-1.2001-.7l-24.0999-48.5c-.1333-.1333-.26675-.2-.40005-.2-.0667 0-.1.1-.1.3l.1 48.1c0 .6667-.3333 1-1 1h-7.6c-.666669 0-.999999-.3333-.999999-1v-68.00001c0-.6667.33333-1 .999999-1h8c.6 0 1.00005.23331 1.20005.70001l24 48.5c.1333.1333.2333.2.3.2.1333 0 .2-.1.2-.3zm38.6914 68.90001c-.6667 0-1-.3333-1-1v-28.4c0-.2667-.0333-.4333-.1-.5l-17.4-38.8-.1-.40001c0-.5333.3-.8.8999-.8h8.1001c.5333 0 .9.2667 1.1.8l12 28.40001c.0667.1333.1667.2.3.2s.2332-.0667.3-.2l11.9-28.40001c.2-.5333.5667-.8 1.1-.8h8.1996c.334 0 .567.1333.7.4.2.2.234.46671.1.80001l-17.4996 38.8c-.0668.0667-.1.2333-.1.5v28.4c0 .6667-.3333 1-1 1zm54.0216.9c-4.2 0-7.934-.8333-11.2-2.5-3.2-1.7333-5.7-4.1333-7.5-7.2-1.734-3.1333-2.6-6.7333-2.6-10.8v-30.7c0-6.2 1.933-11.13331 5.8-14.80001 3.933-3.7333 9.1-5.599995 15.5-5.599995s11.533 1.833305 15.4 5.500005c3.866 3.6667 5.8 8.5333 5.8 14.6v.8c0 .3333-.1.6-.3.8s-.434.3-.7.3l-7.6.4c-.667 0-1-.3333-1-1v-1.5c0-3.4667-1.067-6.2667-3.2-8.4-2.134-2.1333-4.934-3.20001-8.4-3.20001-3.467 0-6.3 1.06671-8.5 3.20001-2.134 2.1333-3.2 4.9333-3.2 8.4v31.8c0 3.4667 1.066 6.2667 3.2 8.4 2.2 2.1333 5.033 3.2 8.5 3.2 3.466 0 6.266-1.0667 8.4-3.2 2.133-2.1333 3.2-4.9333 3.2-8.4v-1.4c0-.6667.333-1 1-1l7.6.4c.666 0 1 .3333 1 1v.7c0 4-.9 7.5333-2.7 10.6-1.734 3.0667-4.2 5.4333-7.4 7.1s-6.9 2.5-11.1 2.5z"/><path d="m128.546 248.356c-2.045 0-3.807-.704-5.287-2.112-1.411-1.407-2.115-3.096-2.115-5.066 0-2.041.704-3.73 2.115-5.067 1.48-1.408 3.242-2.111 5.287-2.111 2.116 0 3.878.703 5.288 2.111 1.41 1.337 2.115 3.026 2.115 5.067 0 1.97-.705 3.659-2.115 5.066-1.41 1.408-3.172 2.112-5.288 2.112zm-2.933 60.644c-3.032 0-5.288-.914-6.768-2.744-1.481-1.9-1.939-4.399-1.375-7.495l5.711-31.878c.282-1.759-.423-2.639-2.115-2.639h-14.066l1.375-7.6h15.546c3.454 0 5.817.845 7.086 2.534 1.269 1.619 1.621 4.222 1.058 7.811l-5.711 31.667c-.283 1.83.423 2.744 2.115 2.744h16.18l-1.374 7.6zm17.006 0 7.403-41.695c.423-2.04-.387-3.061-2.432-3.061h-5.183l1.376-7.6h8.672c2.115 0 3.737.528 4.864 1.583 1.128 1.056 1.693 2.499 1.693 4.329v1.16h.423c1.692-2.322 3.983-4.292 6.873-5.911 2.961-1.618 6.522-2.427 10.682-2.427 4.372 0 7.896 1.02 10.576 3.06 2.749 1.971 4.618 4.681 5.604 8.129.988 3.377 1.094 7.107.318 11.189l-5.499 31.244h-8.884l5.393-30.4c.776-4.363.283-7.987-1.48-10.873-1.763-2.955-4.829-4.433-9.201-4.433-4.23 0-7.932 1.514-11.105 4.539-3.101 2.956-5.146 7.108-6.133 12.456l-5.077 28.711z"/></g><path d="m236.713 375c-9.209 0-16.764-1.782-22.667-5.345-5.902-3.683-10.152-8.494-12.749-14.433-2.598-6.058-3.66-12.709-3.188-19.955h15.583c-.944 7.602.65 13.897 4.781 18.886 4.132 4.87 10.448 7.306 18.948 7.306 8.381 0 15.11-1.96 20.187-5.88 5.194-4.039 7.791-9.622 7.791-16.749 0-3.563-.767-6.771-2.302-9.621-1.416-2.851-4.014-5.524-7.791-8.018-3.66-2.495-8.913-4.93-15.76-7.306-9.917-3.444-17.236-8.018-21.958-13.719-4.604-5.702-6.906-12.829-6.906-21.381 0-9.978 3.837-17.937 11.51-23.876 7.791-5.939 18.121-8.909 30.989-8.909 11.569 0 20.541 3.148 26.916 9.443 6.375 6.177 9.327 14.552 8.854 25.123h-15.583c.473-6.414-1.358-11.522-5.489-15.323-4.132-3.801-9.681-5.702-16.646-5.702-7.201 0-13.163 1.723-17.885 5.168-4.722 3.326-7.083 7.72-7.083 13.185 0 5.701 1.829 10.453 5.489 14.254 3.778 3.682 10.566 7.305 20.364 10.869 8.973 3.326 16.056 7.602 21.25 12.828 5.312 5.108 7.969 12.175 7.969 21.203 0 8.077-1.889 14.967-5.667 20.669-3.777 5.582-9.031 9.859-15.76 12.829-6.611 2.969-14.343 4.454-23.197 4.454z" fill="#dcdf3d"/><path d="m307.823 375 19.671-110.537h-33.494l2.481-13.463h81.519l-2.481 13.463h-33.139l-19.671 110.537z" fill="#dcdf3d"/><path d="m463 375 22.058-124h15.12l18.322 58.989 38.601-58.989h16.899l-22.058 124h-14.586l17.077-95.126-32.731 49.955h-11.918l-15.298-49.955-16.899 95.126z" fill="#dcdf3d"/><path d="m367 375 22.545-124h79.455l-2.545 13.463h-64.182l-7.455 41.274h58.727l-2.363 13.463h-58.727l-7.819 42.337h64.364l-2.545 13.463z" fill="#dcdf3d"/></svg>
